pic/food/cherries.svg

<?xml version="1.0" encoding="UTF-8" standalone="no"?>
<svg
   xmlns:dc="http://purl.org/dc/elements/1.1/"
   xmlns:cc="http://creativecommons.org/ns#"
   xmlns:rdf="http://www.w3.org/1999/02/22-rdf-syntax-ns#"
   xmlns:svg="http://www.w3.org/2000/svg"
   xmlns="http://www.w3.org/2000/svg"
   xmlns:xlink="http://www.w3.org/1999/xlink"
   xmlns:sodipodi="http://sodipodi.sourceforge.net/DTD/sodipodi-0.dtd"
   xmlns:inkscape="http://www.inkscape.org/namespaces/inkscape"
   version="1.0"
   width="128"
   height="128"
   id="svg2"
   sodipodi:docname="cherries.svg"
   inkscape:version="0.92.2 (5c3e80d, 2017-08-06)">
  <metadata
     id="metadata55">
    <rdf:RDF>
      <cc:Work
         rdf:about="">
        <dc:format>image/svg+xml</dc:format>
        <dc:type
           rdf:resource="http://purl.org/dc/dcmitype/StillImage" />
        <dc:title></dc:title>
      </cc:Work>
    </rdf:RDF>
  </metadata>
  <sodipodi:namedview
     pagecolor="#ffffff"
     bordercolor="#666666"
     borderopacity="1"
     objecttolerance="10"
     gridtolerance="10"
     guidetolerance="10"
     inkscape:pageopacity="0"
     inkscape:pageshadow="2"
     inkscape:window-width="1920"
     inkscape:window-height="1025"
     id="namedview53"
     showgrid="false"
     inkscape:zoom="3.4766083"
     inkscape:cx="-16.789628"
     inkscape:cy="34.815495"
     inkscape:window-x="-8"
     inkscape:window-y="-8"
     inkscape:window-maximized="1"
     inkscape:current-layer="svg2"
     fit-margin-top="0"
     fit-margin-left="0"
     fit-margin-right="0"
     fit-margin-bottom="0" />
  <defs
     id="defs">
    <linearGradient
       id="G1">
      <stop
         id="s1"
         style="stop-color:#59a40f;stop-opacity:1"
         offset="0" />
      <stop
         id="s2"
         style="stop-color:#306102;stop-opacity:1"
         offset="1" />
    </linearGradient>
    <linearGradient
       id="G2">
      <stop
         id="s3"
         style="stop-color:#fff;stop-opacity:1"
         offset="0" />
      <stop
         id="s4"
         style="stop-color:#fff;stop-opacity:0"
         offset="1" />
    </linearGradient>
    <linearGradient
       id="G3">
      <stop
         id="s5"
         style="stop-color:#000;stop-opacity:1"
         offset="0" />
      <stop
         id="s6"
         style="stop-color:#000;stop-opacity:0"
         offset="1" />
    </linearGradient>
    <linearGradient
       id="G4">
      <stop
         id="s7"
         style="stop-color:#d50f0f;stop-opacity:1"
         offset="0" />
      <stop
         id="s8"
         style="stop-color:#860000;stop-opacity:1"
         offset="1" />
    </linearGradient>
    <linearGradient
       id="G5">
      <stop
         id="s9"
         style="stop-color:#000;stop-opacity:1"
         offset="0" />
      <stop
         id="s10"
         style="stop-color:#000;stop-opacity:0"
         offset="1" />
    </linearGradient>
    <radialGradient
       cx="33.921108"
       cy="32.026119"
       r="12.011442"
       fx="33.921108"
       fy="32.026119"
       id="R1"
       xlink:href="#G4"
       gradientUnits="userSpaceOnUse"
       gradientTransform="matrix(1.097181,-0.06040066,0.05995679,1.0724194,-4.7989161,-0.4395409)" />
    <radialGradient
       cx="25.346392"
       cy="30.310101"
       r="12.011442"
       fx="22.505642"
       fy="25.064268"
       id="R2"
       xlink:href="#G2"
       gradientUnits="userSpaceOnUse"
       gradientTransform="matrix(0.7893072,0.4930809,-0.2597058,0.4157284,13.249074,5.1887365)" />
    <linearGradient
       x1="42.550949"
       y1="46.025867"
       x2="22.733898"
       y2="23.322678"
       id="G6"
       xlink:href="#G4"
       gradientUnits="userSpaceOnUse" />
    <radialGradient
       cx="41.247238"
       cy="11.364712"
       r="4.9179087"
       fx="41.771999"
       fy="11.680827"
       id="R3"
       xlink:href="#G1"
       gradientUnits="userSpaceOnUse"
       gradientTransform="matrix(0.3650513,-0.5609361,1.4421477,0.9385381,10.519018,23.382758)" />
    <radialGradient
       cx="15.115514"
       cy="63.965389"
       r="12.289036"
       fx="13.292242"
       fy="60.043758"
       id="R4"
       xlink:href="#G5"
       gradientUnits="userSpaceOnUse"
       gradientTransform="matrix(1.1014046,0.04770002,-0.03084368,0.7019647,15.085209,-6.7691401)" />
    <radialGradient
       cx="15.115514"
       cy="63.965389"
       r="12.289036"
       fx="15.115514"
       fy="63.965389"
       id="R5"
       xlink:href="#G5"
       gradientUnits="userSpaceOnUse"
       gradientTransform="matrix(1.0808455,0.04680964,-0.03084368,0.7019647,0.4234683,-14.350401)" />
    <radialGradient
       cx="23.261456"
       cy="33.479305"
       r="11.05701"
       fx="23.261456"
       fy="33.479305"
       id="R6"
       xlink:href="#G3"
       gradientUnits="userSpaceOnUse"
       gradientTransform="matrix(1.0945361,0.0051153,-0.0049669,0.9433728,-0.7720082,-1.480212)" />
    <linearGradient
       x1="25.127941"
       y1="38.802361"
       x2="7.2131085"
       y2="18.547888"
       id="G7"
       xlink:href="#G4"
       gradientUnits="userSpaceOnUse"
       gradientTransform="matrix(0.9456547,0.04095475,-0.04171466,0.949375,3.2709546,-2.808759)" />
    <radialGradient
       cx="9.7957067"
       cy="24.748089"
       r="11.05701"
       fx="9.6232567"
       fy="19.022348"
       id="R7"
       xlink:href="#G2"
       gradientUnits="userSpaceOnUse"
       gradientTransform="matrix(0.6056649,0.551086,-0.313263,0.3495356,13.582145,6.0888501)" />
    <radialGradient
       cx="16.357241"
       cy="27.468206"
       r="11.05701"
       fx="16.357241"
       fy="27.468206"
       id="R8"
       xlink:href="#G4"
       gradientUnits="userSpaceOnUse"
       gradientTransform="matrix(1.0249592,0.00838735,-0.00872225,0.9898042,1.2754643,-3.4342756)" />
    <radialGradient
       cx="29.495701"
       cy="-3.5973825"
       r="9.750001"
       fx="29.495701"
       fy="-3.5973825"
       id="R9"
       xlink:href="#G1"
       gradientUnits="userSpaceOnUse"
       gradientTransform="matrix(-0.7988298,0.07667793,-0.03200596,-0.3334379,53.946913,1.6114579)" />
  </defs>
  <g
     id="g880"
     transform="matrix(2.9949007,0,0,2.9949007,-11.147575,-1.1178319)">
    <g
       id="cherry1">
      <path
         style="fill:url(#R8);stroke:#520000"
         id="p1"
         d="M 23.835864,30.313446 C 20.3266,34.745493 13.750112,37.426651 9.2045239,34.027454 3.9349828,31.823812 3.1501279,24.940523 5.4324993,19.808122 c 2.5635189,-5.76462 8.1349067,-6.618003 14.2693627,-3.116229 6.134453,3.501778 8.075541,8.643559 4.134002,13.621553 z"
         inkscape:connector-curvature="0" />
      <path
         style="opacity:0.66000001;fill:url(#R7);stroke:#520000"
         id="p2"
         d="M 23.835864,30.313446 C 20.3266,34.745493 13.750112,37.426651 9.2045239,34.027454 3.9349828,31.823812 3.1501279,24.940523 5.4324993,19.808122 c 2.5635189,-5.76462 8.1349067,-6.618003 14.2693627,-3.116229 6.134453,3.501778 8.075541,8.643559 4.134002,13.621553 z"
         inkscape:connector-curvature="0" />
      <path
         style="fill:none;stroke:url(#G7)"
         id="p3"
         d="m 12.677627,15.595635 c -4.2954133,0.128084 -6.4033233,3.738112 -7.1326048,6.981594 -1.0576304,4.703817 0.4641236,9.228628 4.2269864,10.623419 3.3642544,2.685912 8.6911344,1.057484 11.9031124,-2.017887 3.105949,-2.973855 4.225221,-6.053196 2.265473,-9.344724 -1.655439,-2.90808 -6.896197,-6.261542 -11.262967,-6.242402 z"
         inkscape:connector-curvature="0" />
      <path
         style="fill:none;stroke:#520000"
         id="p4"
         d="m 15.809853,16.254682 c -0.410357,2.183341 2.730353,4.455747 5.52119,3.060608"
         inkscape:connector-curvature="0" />
      <path
         style="fill:url(#R6)"
         id="path37"
         d="M 24.554584,30.151668 C 20.331363,35.791952 13.422872,37.798896 8.8772843,34.3997 3.6077432,32.196058 3.1501279,24.940523 5.4324993,19.808122 c 2.5635189,-5.76462 8.3726127,-7.016468 14.5302327,-3.555589 6.463972,3.625349 8.162684,9.15455 4.591852,13.899135 z"
         inkscape:connector-curvature="0" />
    </g>
    <g
       id="cherry2"
       transform="matrix(0.9200696,0.0398467,-0.04074278,0.9272562,3.8008343,-2.2928083)">
      <path
         style="fill:url(#R1);stroke:#520000"
         id="p5"
         d="m 41.737504,37.155718 c -2.279722,6.288872 -8.636377,11.670921 -14.976424,9.411231 -6.70613,-0.642133 -10.13411,-8.200552 -9.485159,-14.85215 0.72889,-7.470957 6.639519,-10.416091 14.793381,-8.602451 8.153861,1.813641 12.228746,6.979824 9.668202,14.04337 z"
         inkscape:connector-curvature="0" />
      <path
         style="opacity:0.66000001;fill:url(#R2);stroke:#520000"
         id="p6"
         d="m 41.711204,37.144794 c -2.277279,6.295786 -8.627121,11.683751 -14.960373,9.421577 -6.698943,-0.642839 -10.123249,-8.209567 -9.474994,-14.868477 0.728109,-7.47917 6.632404,-10.427541 14.777527,-8.611908 8.145122,1.815635 12.21564,6.987497 9.65784,14.058808 z"
         inkscape:connector-curvature="0" />
      <path
         style="fill:none;stroke:url(#G6)"
         id="p7"
         d="m 26.576435,23.697387 c -3.07205,0.155699 -5.787765,1.525561 -7.161646,4.252889 -2.536789,5.035851 -0.534722,11.521311 1.70598,14.298856 2.676736,3.324223 4.934282,3.044001 6.227098,3.37753 4.357162,1.420678 8.868153,-1.071186 11.727552,-5.604975 4.783396,-7.584431 1.766894,-12.681507 -4.479051,-15.087571 -2.496318,-0.961632 -5.266809,-1.376265 -8.019933,-1.236729 z"
         inkscape:connector-curvature="0" />
      <path
         style="fill:none;stroke:#520000"
         id="p8"
         d="m 27.84062,23.746953 c -0.601384,3.336063 4.88838,5.213413 6.335518,2.000743"
         inkscape:connector-curvature="0" />
    </g>
    <g
       id="leaf1"
       transform="matrix(0.9200696,0.0398467,-0.04662574,1.0611452,3.8131591,-2.5733061)">
      <path
         style="fill:url(#R9);stroke:#2d5a00"
         id="p9"
         d="m 24.613318,3.4222499 c 4.379842,-2.7467726 13.961143,0.2358344 13.961143,0.2358344 0,0 -7.194349,6.7152987 -10.797264,5.9843217 -3.083646,-0.6308716 -11.58128,-5.2338955 -11.58128,-5.2338955 0,0 4.589896,1.4036024 8.417401,-0.9862606 z"
         inkscape:connector-curvature="0" />
      <path
         style="fill:none;stroke:#59aa0a;stroke-miterlimit:9"
         id="p10"
         d="m 20.413638,5.5583702 c 3.252501,1.6506296 6.390266,2.9191585 6.970787,3.1115861 2.6918,0.8922622 7.755537,-3.3330921 9.323126,-4.624991 C 34.642329,3.5332745 28.625909,2.3936932 25.633428,3.8848101 24.582684,4.4084018 22.613312,5.4368054 20.413638,5.5583702 Z"
         inkscape:connector-curvature="0" />
    </g>
    <path
       style="fill:#4e9a06;stroke:#275000"
       id="stem"
       d="m 39.492989,2.2868919 c 0,0 -1.663653,1.1485775 -1.663653,1.1485775 C 20.796693,9.194841 19.072733,17.520073 16.788922,17.4624 c 0.573766,1.140433 1.701147,1.362794 3.205379,1.461167 -1.850565,-2.009471 5.445208,-9.7165329 16.533011,-13.83938 -4.263221,6.054925 -5.302973,17.436646 -6.801301,17.559445 1.201227,0.812468 1.916787,1.134446 3.176197,0.486306 -1.201171,-1.319018 0.915683,-12.05067 4.911308,-18.0747898 0,0 2.724897,-1.647666 2.724897,-1.647666 z"
       inkscape:connector-curvature="0" />
    <g
       id="leaf2"
       transform="matrix(0.9200696,0.0398467,-0.04078582,0.9282356,3.8028823,-2.3394195)">
      <path
         style="fill:url(#R3);stroke:#2d5a00"
         id="p11"
         d="m 39.150684,3.4294307 c -0.231607,1.1725256 -0.737803,2.1469717 5.65175,5.6215444 2.956888,1.6079249 0.964183,5.0964169 0.410371,9.7184059 C 40.134558,14.021326 34.803501,8.698987 39.150684,3.4294307 Z"
         inkscape:connector-curvature="0" />
      <path
         style="fill:none;stroke:#59aa0a"
         id="p12"
         d="m 38.775684,5.9606807 c -0.125,0.25 -0.788081,2.0597804 0.715085,4.7895463 0.987771,1.945642 3.283821,4.336522 5.050161,6.019154 0.725687,-3.731364 1.518337,-5.789898 -0.051,-6.749656 C 43.82263,9.6116214 42.049642,8.6903056 40.814794,7.8229764 39.164909,6.6641346 38.775684,5.9606807 38.775684,5.9606807 Z"
         inkscape:connector-curvature="0" />
    </g>
  </g>
</svg>

<?xml version="1.0" encoding="UTF-8"?>
<svg xmlns="http://www.w3.org/2000/svg" xmlns:svg="http://www.w3.org/2000/svg" xmlns:xlink="http://www.w3.org/1999/xlink" version="1.0" width="48" height="48" id="svg2">
  <defs id="defs">
    <linearGradient id="G1">
      <stop id="s1" style="stop-color:#59a40f;stop-opacity:1" offset="0"/>
      <stop id="s2" style="stop-color:#306102;stop-opacity:1" offset="1"/>
    </linearGradient>
    <linearGradient id="G2">
      <stop id="s3" style="stop-color:#fff;stop-opacity:1" offset="0"/>
      <stop id="s4" style="stop-color:#fff;stop-opacity:0" offset="1"/>
    </linearGradient>
    <linearGradient id="G3">
      <stop id="s5" style="stop-color:#000;stop-opacity:1" offset="0"/>
      <stop id="s6" style="stop-color:#000;stop-opacity:0" offset="1"/>
    </linearGradient>
    <linearGradient id="G4">
      <stop id="s7" style="stop-color:#d50f0f;stop-opacity:1" offset="0"/>
      <stop id="s8" style="stop-color:#860000;stop-opacity:1" offset="1"/>
    </linearGradient>
    <linearGradient id="G5">
      <stop id="s9" style="stop-color:#000;stop-opacity:1" offset="0"/>
      <stop id="s10" style="stop-color:#000;stop-opacity:0" offset="1"/>
    </linearGradient>
    <radialGradient cx="33.921108" cy="32.026119" r="12.011442" fx="33.921108" fy="32.026119" id="R1" xlink:href="#G4" gradientUnits="userSpaceOnUse" gradientTransform="matrix(1.097181,-6.0400656e-2,5.9956794e-2,1.0724194,-4.7989161,-0.4395409)"/>
    <radialGradient cx="25.346392" cy="30.310101" r="12.011442" fx="22.505642" fy="25.064268" id="R2" xlink:href="#G2" gradientUnits="userSpaceOnUse" gradientTransform="matrix(0.7893072,0.4930809,-0.2597058,0.4157284,13.249074,5.1887365)"/>
    <linearGradient x1="42.550949" y1="46.025867" x2="22.733898" y2="23.322678" id="G6" xlink:href="#G4" gradientUnits="userSpaceOnUse"/>
    <radialGradient cx="41.247238" cy="11.364712" r="4.9179087" fx="41.771999" fy="11.680827" id="R3" xlink:href="#G1" gradientUnits="userSpaceOnUse" gradientTransform="matrix(0.3650513,-0.5609361,1.4421477,0.9385381,10.519018,23.382758)"/>
    <radialGradient cx="15.115514" cy="63.965389" r="12.289036" fx="13.292242" fy="60.043758" id="R4" xlink:href="#G5" gradientUnits="userSpaceOnUse" gradientTransform="matrix(1.1014046,4.7700018e-2,-3.0843681e-2,0.7019647,15.085209,-6.7691401)"/>
    <radialGradient cx="15.115514" cy="63.965389" r="12.289036" fx="15.115514" fy="63.965389" id="R5" xlink:href="#G5" gradientUnits="userSpaceOnUse" gradientTransform="matrix(1.0808455,4.680964e-2,-3.0843681e-2,0.7019647,0.4234683,-14.350401)"/>
    <radialGradient cx="23.261456" cy="33.479305" r="11.05701" fx="23.261456" fy="33.479305" id="R6" xlink:href="#G3" gradientUnits="userSpaceOnUse" gradientTransform="matrix(1.0945361,5.1152978e-3,-4.9669002e-3,0.9433728,-0.7720082,-1.480212)"/>
    <linearGradient x1="25.127941" y1="38.802361" x2="7.2131085" y2="18.547888" id="G7" xlink:href="#G4" gradientUnits="userSpaceOnUse" gradientTransform="matrix(0.9456547,4.0954751e-2,-4.171466e-2,0.949375,3.2709546,-2.808759)"/>
    <radialGradient cx="9.7957067" cy="24.748089" r="11.05701" fx="9.6232567" fy="19.022348" id="R7" xlink:href="#G2" gradientUnits="userSpaceOnUse" gradientTransform="matrix(0.6056649,0.551086,-0.313263,0.3495356,13.582145,6.0888501)"/>
    <radialGradient cx="16.357241" cy="27.468206" r="11.05701" fx="16.357241" fy="27.468206" id="R8" xlink:href="#G4" gradientUnits="userSpaceOnUse" gradientTransform="matrix(1.0249592,8.3873471e-3,-8.7222452e-3,0.9898042,1.2754643,-3.4342756)"/>
    <radialGradient cx="29.495701" cy="-3.5973825" r="9.750001" fx="29.495701" fy="-3.5973825" id="R9" xlink:href="#G1" gradientUnits="userSpaceOnUse" gradientTransform="matrix(-0.7988298,7.6677925e-2,-3.2005959e-2,-0.3334379,53.946913,1.6114579)"/>
  </defs>
  <path d="M28.070622,31.833858C27.862715,36.598861 21.74574,40.204546 14.408959,39.886802C7.0721776,39.569058 1.2946986,35.448243 1.5055256,30.683368C1.7134327,25.918365 7.830407,22.31268 15.167188,22.630424C22.503969,22.948168 28.281449,27.068982 28.070622,31.833858L28.070622,31.833858z" id="s1" style="fill:url(#R5)"/>
  <path d="M43.295775,39.439519C43.087896,44.204523 36.857797,47.805309 29.381461,47.481521C21.905124,47.157734 16.014521,43.03202 16.225376,38.267145C16.433255,33.502142 22.663354,29.901355 30.13969,30.225143C37.616026,30.548931 43.50663,34.674645 43.295775,39.439519L43.295775,39.439519z" id="s2" style="fill:url(#R4)"/>
  <g id="cherry1">
    <path d="M23.835864,30.313446C20.3266,34.745493 13.750112,37.426651 9.2045239,34.027454C3.9349828,31.823812 3.1501279,24.940523 5.4324993,19.808122C7.9960182,14.043502 13.567406,13.190119 19.701862,16.691893C25.836315,20.193671 27.777403,25.335452 23.835864,30.313446z" id="p1" style="fill:url(#R8);stroke:#520000"/>
    <path d="M23.835864,30.313446C20.3266,34.745493 13.750112,37.426651 9.2045239,34.027454C3.9349828,31.823812 3.1501279,24.940523 5.4324993,19.808122C7.9960182,14.043502 13.567406,13.190119 19.701862,16.691893C25.836315,20.193671 27.777403,25.335452 23.835864,30.313446z" id="p2" style="opacity:0.66;fill:url(#R7);stroke:#520000"/>
    <path d="M12.677627,15.595635C8.3822137,15.723719 6.2743037,19.333747 5.5450222,22.577229C4.4873918,27.281046 6.0091458,31.805857 9.7720086,33.200648C13.136263,35.88656 18.463143,34.258132 21.675121,31.182761C24.78107,28.208906 25.900342,25.129565 23.940594,21.838037C22.285155,18.929957 17.044397,15.576495 12.677627,15.595635z" id="p3" style="fill:none;stroke:url(#G7)"/>
    <path d="M15.809853,16.254682C15.399496,18.438023 18.540206,20.710429 21.331043,19.31529" id="p4" style="fill:none;stroke:#520000"/>
    <path d="M24.554584,30.151668C20.331363,35.791952 13.422872,37.798896 8.8772843,34.3997C3.6077432,32.196058 3.1501279,24.940523 5.4324993,19.808122C7.9960182,14.043502 13.805112,12.791654 19.962732,16.252533C26.426704,19.877882 28.125416,25.407083 24.554584,30.151668z" id="s3" style="fill:url(#R6)"/>
  </g>
  <g transform="matrix(0.9200696,3.9846702e-2,-4.0742783e-2,0.9272562,3.8008343,-2.2928083)" id="cherry2">
    <path d="M41.737504,37.155718C39.457782,43.44459 33.101127,48.826639 26.76108,46.566949C20.05495,45.924816 16.62697,38.366397 17.275921,31.714799C18.004811,24.243842 23.91544,21.298708 32.069302,23.112348C40.223163,24.925989 44.298048,30.092172 41.737504,37.155718z" id="p5" style="fill:url(#R1);stroke:#520000"/>
    <path d="M41.711204,37.144794C39.433925,43.44058 33.084083,48.828545 26.750831,46.566371C20.051888,45.923532 16.627582,38.356804 17.275837,31.697894C18.003946,24.218724 23.908241,21.270353 32.053364,23.085986C40.198486,24.901621 44.269004,30.073483 41.711204,37.144794z" id="p6" style="opacity:0.66;fill:url(#R2);stroke:#520000"/>
    <path d="M26.576435,23.697387C23.504385,23.853086 20.78867,25.222948 19.414789,27.950276C16.878,32.986127 18.880067,39.471587 21.120769,42.249132C23.797505,45.573355 26.055051,45.293133 27.347867,45.626662C31.705029,47.04734 36.21602,44.555476 39.075419,40.021687C43.858815,32.437256 40.842313,27.34018 34.596368,24.934116C32.10005,23.972484 29.329559,23.557851 26.576435,23.697387z" id="p7" style="fill:none;stroke:url(#G6)"/>
    <path d="M27.84062,23.746953C27.239236,27.083016 32.729,28.960366 34.176138,25.747696" id="p8" style="fill:none;stroke:#520000"/>
  </g>
  <g transform="matrix(0.9200696,3.9846702e-2,-4.6625741e-2,1.0611452,3.8131591,-2.5733061)" id="leaf1">
    <path d="M24.613318,3.4222499C28.99316,0.6754773 38.574461,3.6580843 38.574461,3.6580843C38.574461,3.6580843 31.380112,10.373383 27.777197,9.642406C24.693551,9.0115344 16.195917,4.4085105 16.195917,4.4085105C16.195917,4.4085105 20.785813,5.8121129 24.613318,3.4222499z" id="p9" style="fill:url(#R9);stroke:#2d5a00"/>
    <path d="M20.413638,5.5583702C23.666139,7.2089998 26.803904,8.4775287 27.384425,8.6699563C30.076225,9.5622185 35.139962,5.3368642 36.707551,4.0449653C34.642329,3.5332745 28.625909,2.3936932 25.633428,3.8848101C24.582684,4.4084018 22.613312,5.4368054 20.413638,5.5583702z" id="p10" style="fill:none;stroke:#59aa0a;stroke-miterlimit:9"/>
  </g>
  <path d="M39.492989,2.2868919C39.492989,2.2868919 37.829336,3.4354694 37.829336,3.4354694C20.796693,9.194841 19.072733,17.520073 16.788922,17.4624C17.362688,18.602833 18.490069,18.825194 19.994301,18.923567C18.143736,16.914096 25.439509,9.2070341 36.527312,5.084187C32.264091,11.139112 31.224339,22.520833 29.726011,22.643632C30.927238,23.4561 31.642798,23.778078 32.902208,23.129938C31.701037,21.81092 33.817891,11.079268 37.813516,5.0551482C37.813516,5.0551482 40.538413,3.4074822 40.538413,3.4074822L39.492989,2.2868919z" id="stem" style="fill:#4e9a06;stroke:#275000"/>
  <g transform="matrix(0.9200696,3.9846702e-2,-4.0785816e-2,0.9282356,3.8028823,-2.3394195)" id="leaf2">
    <path d="M39.150684,3.4294307C38.919077,4.6019563 38.412881,5.5764024 44.802434,9.0509751C47.759322,10.6589 45.766617,14.147392 45.212805,18.769381C40.134558,14.021326 34.803501,8.698987 39.150684,3.4294307z" id="p11" style="fill:url(#R3);stroke:#2d5a00"/>
    <path d="M38.775684,5.9606807C38.650684,6.2106807 37.987603,8.0204611 39.490769,10.750227C40.47854,12.695869 42.77459,15.086749 44.54093,16.769381C45.266617,13.038017 46.059267,10.979483 44.489934,10.019725C43.82263,9.6116214 42.049642,8.6903056 40.814794,7.8229764C39.164909,6.6641346 38.775684,5.9606807 38.775684,5.9606807z" id="p12" style="fill:none;stroke:#59aa0a"/>
  </g>
</svg>
